X: 19250
T: Italian Rant
R: reel
M: 4/4
K: Fdorian
K: C minor
|:CDEF G2G2|A2GF G2G2|F2FG E2E2|DCDE C4:|
|:c4 B4|=AGAB G4|GAGF G2 G2|F3G E4|EFGE F2 D2|
DEFD E2 C2|CDEF G2G2|A2GF G2G2|F2FG E2E2|DCDE C4:|

